X: 38549
T: Steve Quinn's Fancy
R: slip jig
M: 9/8
K: Edorian
|:F|GEE eBc dcB|AdB AFD DEF|GEE eBc dcB|AdB AFD E2:|
A|~B2 e eBe gfe|dcd fae fed|~B2 e eBe gfe|dfb afd ~e2 d|
~B2 e eBe gfe|dcd fae fed|efg fed BAG|AdB AFD E2||

